v2/src/assets/icones/icon__dialog.svg

<svg width="39" height="34" viewBox="0 0 39 34" fill="none" xmlns="http://www.w3.org/2000/svg">
<path d="M19.4722 0.17627C8.97764 0.17627 0.472168 7.08604 0.472168 15.6138C0.472168 19.295 2.06045 22.6646 4.70264 25.3142C3.7749 29.0548 0.672559 32.3872 0.635449 32.4243C0.472168 32.595 0.427637 32.8474 0.524121 33.07C0.620605 33.2927 0.828418 33.4263 1.06592 33.4263C5.98662 33.4263 9.67529 31.0661 11.5011 29.6114C13.928 30.5243 16.6222 31.0513 19.4722 31.0513C29.9667 31.0513 38.4722 24.1415 38.4722 15.6138C38.4722 7.08604 29.9667 0.17627 19.4722 0.17627ZM9.97217 17.9888C8.6585 17.9888 7.59717 16.9274 7.59717 15.6138C7.59717 14.3001 8.6585 13.2388 9.97217 13.2388C11.2858 13.2388 12.3472 14.3001 12.3472 15.6138C12.3472 16.9274 11.2858 17.9888 9.97217 17.9888ZM19.4722 17.9888C18.1585 17.9888 17.0972 16.9274 17.0972 15.6138C17.0972 14.3001 18.1585 13.2388 19.4722 13.2388C20.7858 13.2388 21.8472 14.3001 21.8472 15.6138C21.8472 16.9274 20.7858 17.9888 19.4722 17.9888ZM28.9722 17.9888C27.6585 17.9888 26.5972 16.9274 26.5972 15.6138C26.5972 14.3001 27.6585 13.2388 28.9722 13.2388C30.2858 13.2388 31.3472 14.3001 31.3472 15.6138C31.3472 16.9274 30.2858 17.9888 28.9722 17.9888Z" fill="black"/>
</svg>

<?xml version="1.0" encoding="utf-8"?>
<!-- Generator: Adobe Illustrator 26.3.1, SVG Export Plug-In . SVG Version: 6.00 Build 0)  -->
<svg version="1.1" id="Camada_1" xmlns="http://www.w3.org/2000/svg" xmlns:xlink="http://www.w3.org/1999/xlink" x="0px" y="0px"
	 viewBox="0 0 39 34" style="enable-background:new 0 0 39 34;" xml:space="preserve">
<style type="text/css">
	.st0{fill:#391741;}
</style>
<path class="st0" d="M19.5,0.2c-10.5,0-19,6.9-19,15.4c0,3.7,1.6,7.1,4.2,9.7c-0.9,3.7-4,7.1-4.1,7.1c-0.2,0.2-0.2,0.4-0.1,0.6
	c0.1,0.2,0.3,0.4,0.5,0.4c4.9,0,8.6-2.4,10.4-3.8c2.4,0.9,5.1,1.4,8,1.4c10.5,0,19-6.9,19-15.4C38.5,7.1,30,0.2,19.5,0.2z M10,18
	c-1.3,0-2.4-1.1-2.4-2.4c0-1.3,1.1-2.4,2.4-2.4c1.3,0,2.4,1.1,2.4,2.4C12.3,16.9,11.3,18,10,18z M19.5,18c-1.3,0-2.4-1.1-2.4-2.4
	c0-1.3,1.1-2.4,2.4-2.4c1.3,0,2.4,1.1,2.4,2.4C21.8,16.9,20.8,18,19.5,18z M29,18c-1.3,0-2.4-1.1-2.4-2.4c0-1.3,1.1-2.4,2.4-2.4
	c1.3,0,2.4,1.1,2.4,2.4C31.3,16.9,30.3,18,29,18z"/>
</svg>
